Assets/IG.svg

<svg height="150" viewBox="0 0 650 150" width="650" xmlns="http://www.w3.org/2000/svg" xmlns:xlink="http://www.w3.org/1999/xlink"><linearGradient id="a" x1="100%" x2="0%" y1="0%" y2="100%"><stop offset="0" stop-color="#9e1c14"/><stop offset=".511792588" stop-color="#d62c25"/><stop offset="1" stop-color="#9e1c14"/></linearGradient><g fill="none" fill-rule="evenodd"><g transform="translate(9 9)"><rect fill="url(#a)" height="133" rx="13" width="133"/><g stroke="#f4f3f9"><g transform="translate(15 23)"><path d="m0 0h16v88c-7.94057865-6.990311-13.27391199-13.6569777-16-20z" fill="#d1d1d1"/><path d="m16 88c-4.3621226-5.5272558-7.66414931-13.0098158-8.40097801-23.2v-56"/><path d="m0 0 7.6 8.8 8.4-8.8"/></g><g transform="translate(37 22)"><path d="m69.9285714 29.6 11.125-10.4c-8.5834052-12.8-21.0328099-19.2-37.3482143-19.2-24.4731065 0-43.93494898 22.1852035-42.91071424 44.8s16.68750004 43.2 42.91071424 43.2c26.2232143 0 43.6019153-21.5930427 44.5024496-40v-7.2h-29.4042353l-15.0982143 14.4h28.6071429c-4.3438985 9.131011-12.3584513 18.4-28.6071429 18.4-16.2486915 0-28.6071428-14.9817258-28.6071428-28.8s10.5933837-29.6 28.6071428-29.6c12.0091728 0 20.7502442 4.8 26.2232143 14.4z" fill="#d1d1d1"/><path d="m81.0535714 19.2h-10.7276785l-.3973215 10.4"/><path d="m43.7053571 55.2 17.0857606-6.8-1.9875463-7.6"/><path d="m60.7901786 48.4h19.8660714c-2.3865856 22.3056617-18.5719311 32.8-36.9508929 32.8-18.3789617 0-35.75892853-15.478734-35.75892853-36.4s17.17470793-37.2 35.75892853-37.2c12.3894805 0 21.2629924 3.8666667 26.6205358 11.6"/></g></g></g><text fill="#000" font-family="Courier-Bold, Courier" font-size="85" font-weight="bold" letter-spacing="-.5142857"><tspan x="163.276932" y="99">Interface</tspan></text></g></svg>

<svg xmlns="http://www.w3.org/2000/svg" xmlns:xlink="http://www.w3.org/1999/xlink" width="414" height="150" viewBox="0 0 414 150">
  <defs>
    <linearGradient id="ig-a" x1="100%" x2="0%" y1="0%" y2="100%">
      <stop offset="0%" stop-color="#9E1C14"/>
      <stop offset="51.179%" stop-color="#D62C25"/>
      <stop offset="100%" stop-color="#9E1C14"/>
    </linearGradient>
    <path id="ig-c" d="M139.97475,97.898062 C140.139342,97.2401409 140.303933,96.5822197 140.468525,95.9242986 C147.710551,67.1402493 130.09926,32.9283507 100.143608,15 C113.310928,32.7638704 119.07163,54.3107873 113.969294,73.0615394 C113.475519,74.7063423 112.981745,76.3511451 112.323379,77.9959479 C111.665013,77.502507 110.842055,77.0090662 109.689915,76.5156254 C109.689915,76.5156254 79.8988539,58.0938338 47.6389205,25.6912183 C46.815963,24.8688169 64.9210276,51.5146225 85.3303733,73.0615394 C75.6194749,67.6336901 48.7910609,48.0605366 31.6735453,32.5993901 C33.8132347,36.0534761 36.2821072,39.507562 38.9155711,42.6326873 C53.0704399,60.7255183 71.669279,82.9303563 93.8891311,100.036306 C78.2529389,109.576162 56.1976783,110.398563 34.3070092,100.036306 C28.8754898,97.5691014 23.7731534,94.4439761 19,90.9898901 C28.2171238,105.793115 42.5365841,118.622577 59.9832827,126.18867 C80.7218113,135.070606 101.46034,134.577165 116.767349,126.353151 L116.767349,126.353151 C116.767349,126.353151 116.931941,126.353151 116.931941,126.18867 C117.590307,125.85971 118.248673,125.366269 118.907039,125.037308 C126.313656,121.254262 140.797708,117.471216 148.6981,132.603401 C151.002381,136.057487 155.117168,116.319854 139.97475,97.898062 C139.97475,97.898062 139.97475,97.898062 139.97475,97.898062 Z"/>
    <filter id="ig-b" width="119.7%" height="122%" x="-11.4%" y="-12.7%" filterUnits="objectBoundingBox">
      <feOffset dx="-2" dy="-2" in="SourceAlpha" result="shadowOffsetOuter1"/>
      <feGaussianBlur in="shadowOffsetOuter1" result="shadowBlurOuter1" stdDeviation="4"/>
      <feColorMatrix in="shadowBlurOuter1" values="0 0 0 0 0   0 0 0 0 0   0 0 0 0 0  0 0 0 0.5 0"/>
    </filter>
  </defs>
  <g fill="none" fill-rule="evenodd">
    <g transform="translate(266 8)">
      <rect width="133" height="133" fill="url(#ig-a)" rx="13"/>
      <g stroke="#F4F3F9" transform="translate(15 22)">
        <g transform="translate(0 1)">
          <path fill="#D1D1D1" d="M0,0 L16,0 L16,88 C8.05942135,81.009689 2.72608801,74.3430223 0,68 L0,0 Z"/>
          <path d="M16,88 C11.6378774,82.4727442 8.33585069,74.9901842 7.59902199,64.8 L7.59902199,8.8"/>
          <polyline points="0 0 7.6 8.8 16 0"/>
        </g>
        <g transform="translate(22)">
          <path fill="#D1D1D1" d="M69.9285714,29.6 L81.0535714,19.2 C72.4701662,6.4 60.0207615,-5.68434189e-14 43.7053571,-5.68434189e-14 C19.2322506,-5.68434189e-14 -0.229591884,22.1852035 0.794642857,44.8 C1.8188776,67.4147965 17.4821429,88 43.7053571,88 C69.9285714,88 87.3072724,66.4069573 88.2078067,48 L88.2078067,40.8 L58.8035714,40.8 L43.7053571,55.2 L72.3125,55.2 C67.9686015,64.331011 59.9540487,73.6 43.7053571,73.6 C27.4566656,73.6 15.0982143,58.6182742 15.0982143,44.8 C15.0982143,30.9817258 25.691598,15.2 43.7053571,15.2 C55.7145299,15.2 64.4556013,20 69.9285714,29.6 Z"/>
          <polyline points="81.054 19.2 70.326 19.2 69.929 29.6"/>
          <polyline points="43.705 55.2 60.791 48.4 58.804 40.8"/>
          <path d="M60.7901786,48.4 L80.65625,48.4 C78.2696644,70.7056617 62.0843189,81.2 43.7053571,81.2 C25.3263954,81.2 7.94642857,65.721266 7.94642857,44.8 C7.94642857,23.878734 25.1211365,7.6 43.7053571,7.6 C56.0948376,7.6 64.9683495,11.4666667 70.3258929,19.2"/>
        </g>
      </g>
    </g>
    <g fill-rule="nonzero">
      <use fill="#000" filter="url(#ig-b)" xlink:href="#ig-c"/>
      <use fill="#F05138" xlink:href="#ig-c"/>
    </g>
    <text fill="#000" font-family="SFProText-Bold, SF Pro Text" font-size="85" font-weight="bold" letter-spacing="-.514">
      <tspan x="178.393" y="103">+</tspan>
    </text>
  </g>
</svg>
